images/icons/crown.svg

<svg width="30" height="32" viewBox="0 0 30 32" fill="none" xmlns="http://www.w3.org/2000/svg">
<g id="Layer_3" clip-path="url(#clip0_26_768)">
<path id="Vector" d="M29.3764 10.8017L17.0025 26.5786L8.87338 25.9222L8.84934 25.9194L8.83479 25.8999L4.20167 19.1881L11.678 0.583496L12.6551 4.83627L12.6737 4.91049L13.373 7.79257L16.2185 6.95711L16.2923 6.93623L20.5255 5.6931L20.5266 5.69374L21.5676 9.98193L21.5853 10.0556L22.2857 12.9383L25.1313 12.1029L25.2037 12.0812L29.3764 10.8017Z" fill="#101820"/>
</g>
<defs>
<clipPath id="clip0_26_768">
<rect width="20.4364" height="23.3559" fill="white" transform="translate(11.678 0.583496) rotate(30)"/>
</clipPath>
</defs>
</svg>

<svg width="30" height="32" fill="none" xmlns="http://www.w3.org/2000/svg"><g clip-path="url(#a)"><path d="M29.376 10.802 17.003 26.579l-8.13-.657-.024-.003-.014-.02-4.633-6.71L11.678.582l.977 4.253.019.074.699 2.883 2.845-.836.074-.02 4.233-1.244h.002l1.04 4.289.018.074.7 2.882 2.846-.835.073-.022 4.172-1.28Z" fill="#101820"/></g><defs><clipPath id="a"><path fill="#fff" transform="rotate(30 4.75 22.083)" d="M0 0h20.436v23.356H0z"/></clipPath></defs></svg>
